usr/share/icons/biglinux-icons-material/22/actions/gtk-select-font.svg

<svg xmlns="http://www.w3.org/2000/svg" viewBox="0 0 22 22">
  <defs id="defs3051">
    <style type="text/css" id="current-color-scheme">
      .ColorScheme-Text {
        color:#dedede;
      }
      </style>
  </defs>
 <path 
     style="fill:currentColor;fill-opacity:1;stroke:none" 
     d="M 9.9101562 4 L 6.5957031 13.59375 L 6.4726562 14 L 5 18 L 6.6582031 18 L 8.2832031 13.5625 L 13.716797 13.5625 L 15.341797 18 L 17 18 L 15.527344 14 L 15.404297 13.59375 L 12.089844 4 L 11.875 4 L 10.125 4 L 9.9101562 4 z M 11.015625 5.9375 L 13.195312 12.28125 L 8.8046875 12.28125 L 11.015625 5.9375 z "
     class="ColorScheme-Text"
     />
 <path 
     style="fill:currentColor;fill-opacity:1;stroke:none" 
     d="M 18 3 C 17.44771 3 17 3.4477 17 4 C 17 4.5523 17.44771 5 18 5 C 18.55228 5 19 4.5523 19 4 C 19 3.4477 18.55228 3 18 3 z M 18 7 C 17.44771 7 17 7.4477 17 8 C 17 8.5523 17.44771 9 18 9 C 18.55228 9 19 8.5523 19 8 C 19 7.4477 18.55228 7 18 7 z M 18 11 C 17.44771 11 17 11.4477 17 12 C 17 12.5523 17.44771 13 18 13 C 18.55228 13 19 12.5523 19 12 C 19 11.4477 18.55228 11 18 11 z "
     class="ColorScheme-Text"
     />
</svg>

<svg xmlns="http://www.w3.org/2000/svg" viewBox="0 0 22 22"><defs id="defs3051"><style id="current-color-scheme" type="text/css">.ColorScheme-Text{color:#dedede}</style></defs><path d="m9.91 4-3.314 9.594-.123.406L5 18h1.658l1.625-4.438h5.434L15.342 18H17l-1.473-4-.123-.406L12.09 4H9.91zm1.106 1.938 2.18 6.343H8.804l2.21-6.344zM18 3a1 1 0 1 0 0 2 1 1 0 0 0 0-2zm0 4a1 1 0 1 0 0 2 1 1 0 0 0 0-2zm0 4a1 1 0 1 0 0 2 1 1 0 0 0 0-2z" class="ColorScheme-Text" style="fill:currentColor;fill-opacity:1;stroke:none"/></svg>
